X: 20
T: Polska från Vetlanda
D: [[Grupper/Sågskära]] - Änglarnas språk
O: Vetlanda, Småland
Z: Transcribed to abc by Jon Magnusson 080411
R: Slängpolska
M: 3/4
L: 1/8
K: Dm
A>d d^c de|g/2f/2e/2f/2 dd ^c>A|Af fd d/2c/2A/2c/2|c/2B/2G/2B/2 BA A2:|
|:Af f/2e/2f/2g/2 aa|g/2a/2g/2f/2 e/2d/2e/2f/2 gg|fg/2e/2 ff/2g/2 aa|g/2a/2g/2f/2 e/2d/2e/2f/2 gg|
f>e df ed|^c=B/2^c/2 d2d2:|

